dist/img/program-icon-1.svg

<svg width="89" height="108" viewBox="0 0 89 108" fill="none" xmlns="http://www.w3.org/2000/svg">
<path d="M35.12 0.241508C32.0167 1.2547 29.8511 4.49691 30.186 7.67158C30.4316 10.1483 30.7888 10.6211 37.4866 17.3757C43.0012 22.937 43.7826 23.635 44.4077 23.635C45.0328 23.635 45.8142 22.937 51.3288 17.3757C58.4508 10.1933 58.5624 10.0357 58.5848 7.01863C58.5848 5.60016 58.4731 4.99225 58.0713 4.1817C57.3122 2.60562 56.1289 1.36728 54.7223 0.6693C53.673 0.151447 53.1595 0.0388703 51.7753 0.0388703C49.3418 0.0388703 48.2255 0.534208 46.1268 2.60562L44.3854 4.29427L42.7779 2.67317C41.7955 1.70501 40.7239 0.871938 40.0541 0.579239C38.6922 -0.0286758 36.3926 -0.186283 35.12 0.241508ZM38.7815 3.95654C39.228 4.20421 40.5006 5.30746 41.6169 6.43323C44.363 9.22514 44.4077 9.22514 47.4217 6.23059C48.672 5.01476 49.9669 3.889 50.3018 3.7539C51.3065 3.37114 52.5344 3.48372 53.3605 4.0466C54.9903 5.14986 55.5484 6.95108 54.7893 8.57219C54.6107 8.95495 52.1995 11.5442 49.4311 14.3361L44.4077 19.4021L39.4736 14.4487C36.7722 11.7243 34.361 9.11256 34.1154 8.66225C32.5525 5.64519 35.7898 2.40298 38.7815 3.95654Z" fill="black"/>
<path d="M25.3412 11.3866C24.8277 11.9495 23.6444 15.1692 23.6444 15.9797C23.6444 17.3757 24.7607 18.1412 26.0333 17.6008C26.6138 17.3532 26.8371 16.9929 27.4399 15.4394C28.4222 12.8726 28.4892 12.3323 27.8864 11.5667C27.2836 10.8012 25.944 10.7111 25.3412 11.3866Z" fill="black"/>
<path d="M60.9067 11.3866C60.1922 11.9495 60.2592 12.8726 61.1523 15.3043C61.9113 17.3757 62.2909 17.8035 63.4518 17.7585C64.2109 17.736 64.8584 17.2181 65.037 16.4751C65.2156 15.7996 63.9653 12.1521 63.3179 11.4542C62.7374 10.8463 61.6211 10.8012 60.9067 11.3866Z" fill="black"/>
<path d="M15.7187 11.7469C15.3615 12.0846 15.1605 12.5349 15.1605 13.0077C15.1605 13.6381 15.4731 14.0434 17.1252 15.7321C19.3132 17.9386 19.8936 18.1412 20.8537 17.1505C21.8137 16.2049 21.6128 15.4844 19.8267 13.4355C18.956 12.4448 18.0629 11.5217 17.8396 11.4091C17.1252 11.0264 16.2768 11.1615 15.7187 11.7469Z" fill="black"/>
<path d="M70.7525 11.4767C70.5515 11.6343 69.6808 12.5349 68.7878 13.4805C67.5152 14.854 67.1803 15.3493 67.1803 15.9122C67.1803 16.8353 68.051 17.7134 68.9441 17.7134C69.7032 17.7134 70.172 17.3082 72.1814 15.0791C73.186 13.9309 73.4316 13.5031 73.4316 12.8951C73.4316 11.5893 71.7348 10.6886 70.7525 11.4767Z" fill="black"/>
<path d="M15.4061 19.4246C13.62 19.6497 12.9726 19.8299 12.6153 20.1676C12.0349 20.753 12.0349 22.0364 12.593 22.6668C13.0619 23.1847 14.1782 23.2522 16.9466 22.892C18.3085 22.7118 18.7104 22.5767 19.1346 22.1039C19.4025 21.7662 19.6257 21.2708 19.6257 20.9781C19.6257 20.3477 18.822 19.3796 18.1745 19.222C17.929 19.1769 16.6787 19.2445 15.4061 19.4246Z" fill="black"/>
<path d="M70.1497 19.312C69.3459 19.6047 68.8771 20.5278 69.1003 21.3834C69.4129 22.4416 70.3953 22.8469 73.2307 23.027L75.5749 23.1847L76.0661 22.5542C76.6912 21.7662 76.6912 21.0457 76.0438 20.3027C75.6196 19.8074 75.2847 19.6723 73.7665 19.4921C72.7842 19.3796 71.6902 19.267 71.3106 19.1994C70.9534 19.1544 70.4176 19.1994 70.1497 19.312Z" fill="black"/>
<path d="M22.93 20.6629C22.4611 20.9331 13.7986 35.433 12.8609 37.5269C12.5037 38.3375 11.9456 39.9586 11.633 41.1294C11.1641 42.9306 11.0748 43.7637 11.0748 46.4205C11.0748 51.509 11.7 53.6029 15.1605 59.9522C16.3885 62.1812 17.3931 64.1401 17.3931 64.2752C17.3931 64.8606 10.3827 89.2447 10.0032 90.0327C9.44504 91.136 8.41804 91.9015 6.78823 92.3518C4.71191 92.9597 3.5063 93.6802 2.25604 95.0312C1.09508 96.337 0.29134 98.0482 0.0680793 99.7594C-0.177508 101.471 -0.400769 101.358 11.7 104.848C17.7057 106.582 22.796 108 22.997 108C24.3142 108 25.3635 105.433 25.1626 102.641C25.0063 100.615 24.2249 98.8813 22.6844 97.2377C21.0769 95.549 20.6751 94.6709 20.6974 93.1399C20.7197 92.2843 21.7914 88.1865 24.2696 79.5406L27.8194 67.1797L31.9274 64.8831C34.1823 63.5997 36.8392 61.9336 37.8215 61.1455C40.0095 59.3893 42.2644 56.5749 43.537 54.0532L44.497 52.1619L45.39 53.8956C46.7073 56.4173 47.6227 57.6782 49.5204 59.6145C51.5967 61.6859 52.2665 62.1587 57.1559 64.9056C59.2992 66.0989 61.0853 67.1121 61.1299 67.1571C61.1746 67.1797 62.8044 72.8085 64.7468 79.6532C67.158 88.0739 68.2966 92.4419 68.2966 93.1849C68.2966 94.7159 67.8724 95.594 66.2873 97.3052C64.5682 99.174 64.0323 100.39 63.8984 102.709C63.7198 105.658 64.6798 108 66.064 108C66.4882 108 86.1798 102.326 87.631 101.808C88.9259 101.313 89.2162 100.66 88.8589 99.1515C87.9659 95.5715 85.7556 93.2975 82.3174 92.3969C80.8885 92.0141 79.9285 91.4062 79.2364 90.438C78.9685 90.0553 77.3164 84.6291 75.1284 76.9738L71.5116 64.1851L73.4986 60.5827C76.6689 54.9088 77.428 52.8599 77.9192 48.7396C78.321 45.2047 77.7406 41.3545 76.2224 37.7521C75.4856 35.9734 66.8677 21.3609 66.2426 20.798C65.997 20.5954 65.5282 20.4153 65.1933 20.4153C64.8807 20.4153 60.1029 21.7437 54.5884 23.3423L44.564 26.2467L34.4503 23.3423C28.8687 21.7212 24.091 20.4153 23.823 20.4153C23.5328 20.4153 23.1309 20.5278 22.93 20.6629ZM41.7955 29.2188L42.6216 29.4439V33.1139C42.6216 35.1403 42.5546 37.4144 42.4877 38.1799L42.3314 39.5533H38.7369C34.7852 39.5533 31.2576 39.3056 27.6631 38.7653C25.1403 38.3825 18.0629 36.6939 17.7727 36.4237C17.6387 36.2886 22.2825 28.1605 24.4258 24.7832C24.7384 24.2879 24.7384 24.3104 32.8428 26.6295C37.308 27.9354 41.3267 29.0837 41.7955 29.2188ZM68.051 30.5247C69.9041 33.6768 71.3999 36.2886 71.3553 36.3336C71.1544 36.5137 67.091 37.617 64.7468 38.1123C60.2146 39.058 56.687 39.3957 51.4404 39.4182L46.5287 39.4407L46.4617 34.4423L46.417 29.4214L46.9082 29.3088C47.1985 29.2188 51.1948 28.0705 55.794 26.7421C61.9114 24.9634 64.2333 24.378 64.4119 24.5581C64.5458 24.6932 66.198 27.3725 68.051 30.5247ZM73.8558 41.8499C74.7712 45.4298 74.6596 48.9197 73.5209 52.3871C73.0074 53.9631 68.7208 62.1362 68.2743 62.4289C68.1627 62.4965 66.9124 62.8792 65.5282 63.2845L62.9607 64.0275L59.0983 61.866C54.4321 59.2543 53.4051 58.5112 51.3511 56.3047C50.1902 55.0439 49.5204 54.0532 48.672 52.3195C47.3547 49.6402 46.8859 47.8615 46.7073 45.1822L46.5733 43.2233L51.9093 43.0882C59.1652 42.8856 65.0593 42.0075 70.9757 40.2513C72.6502 39.756 73.1414 39.6884 73.2753 39.9136C73.3646 40.0937 73.6326 40.9493 73.8558 41.8499ZM19.2908 40.6341C25.118 42.2552 29.8288 42.9081 37.0178 43.0882L42.4653 43.2233L42.3314 45.1596C41.9965 49.5726 40.4337 53.2877 37.5313 56.4623C35.6782 58.4887 34.5842 59.2768 29.9627 61.8435L26.078 64.0275L23.3319 63.2395L20.6081 62.4514L18.3085 58.2411C17.0582 55.8995 15.7856 53.3102 15.4954 52.4321C14.2005 48.5595 14.2228 43.9663 15.5847 40.3639C15.875 39.6434 15.6517 39.6209 19.2908 40.6341ZM22.6398 66.7519C23.7337 67.0896 23.957 67.2472 23.9123 67.6075C23.8677 67.8326 22.3495 73.3038 20.5188 79.7432C18.7104 86.1826 17.1475 91.8565 17.0806 92.3518C16.7233 94.5133 17.8173 97.3502 19.715 99.3091C20.4071 100.03 21.1216 100.975 21.3002 101.426C21.7244 102.416 21.7467 104.037 21.3672 103.88C21.2109 103.835 17.2592 102.686 12.593 101.358C7.92686 100.007 4.06445 98.8813 4.0198 98.8588C3.97515 98.8137 4.19841 98.3634 4.5333 97.8681C5.15843 96.9224 6.1631 96.292 7.79291 95.8417C10.2265 95.1888 12.2581 93.5902 13.2405 91.5638C13.5307 91.0009 15.2945 85.1019 17.1922 78.4373C19.782 69.2511 20.6974 66.3466 20.9653 66.3466C21.1439 66.3466 21.903 66.5267 22.6398 66.7519ZM71.7348 78.1221C75.1061 90.0778 75.6196 91.6313 76.6689 93.0048C77.495 94.108 79.348 95.3013 80.9109 95.7291C82.7193 96.247 84.0142 97.035 84.5947 97.9807C84.8626 98.431 85.0635 98.8137 85.0189 98.8588C84.9742 98.8813 81.1118 100.007 76.4456 101.358C71.7795 102.686 67.8278 103.835 67.6938 103.88C67.2919 104.037 67.3143 102.349 67.7161 101.38C67.8947 100.953 68.6762 99.8945 69.4799 99.0164C71.2883 97.0575 71.8688 95.6391 71.8688 93.2975C71.8688 91.879 71.4446 90.1678 68.4976 79.7432C66.6222 73.1913 65.104 67.675 65.0817 67.4949C65.0593 67.2022 67.1803 66.4141 68.0733 66.3691C68.3189 66.3466 69.212 69.206 71.7348 78.1221Z" fill="black"/>
<path d="M67.225 43.8988C66.6445 44.5067 66.5998 45.2722 67.0687 46.3755C67.2473 46.8258 67.4036 47.6588 67.4036 48.2217C67.4036 48.7846 67.2473 49.6177 67.0687 50.068C66.4435 51.554 66.7115 52.5897 67.8278 53.0625C68.8101 53.4678 69.6138 52.995 70.306 51.599C70.7971 50.6084 70.8641 50.2031 70.8418 48.2217C70.8195 45.8576 70.5069 44.7093 69.6362 43.8312C69.011 43.2008 67.8278 43.2458 67.225 43.8988Z" fill="black"/>
<path d="M65.1933 54.0307C64.8807 54.1883 64.3002 54.9763 63.876 55.8094C63.1616 57.1828 63.117 57.363 63.3849 58.0159C63.876 59.2317 65.3942 59.5695 66.2203 58.6238C66.8454 57.9258 67.8501 56.1246 67.8501 55.6968C67.8501 55.0439 67.3589 54.2333 66.8008 53.9857C66.131 53.6704 65.8631 53.6704 65.1933 54.0307Z" fill="black"/>
<path d="M34.2493 47.3211C33.9144 47.6363 33.6912 48.1317 33.6912 48.4919C33.6912 49.8879 33.2223 50.8335 31.8828 52.1619C30.4762 53.5579 30.3646 53.8506 30.9004 54.8638C31.5925 56.2147 32.9767 56.0346 34.6958 54.3909C36.1024 53.0625 37.0401 51.1262 37.1964 49.2349C37.308 48.0416 37.2633 47.8615 36.7498 47.3436C35.9908 46.5781 34.9861 46.5781 34.2493 47.3211Z" fill="black"/>
<path d="M26.6138 55.4492C25.118 56.2822 24.7607 56.7325 24.7607 57.6782C24.7607 58.4662 25.6984 59.3668 26.4798 59.3668C27.3952 59.3668 29.8511 57.7232 30.0297 57.0027C30.2976 55.922 29.3376 54.6386 28.2659 54.6386C28.1096 54.6386 27.3729 54.9989 26.6138 55.4492Z" fill="black"/>
</svg>

<svg width="89" height="108" fill="none" xmlns="http://www.w3.org/2000/svg"><path d="M35.12.242c-3.103 1.013-5.269 4.255-4.934 7.43.246 2.476.603 2.95 7.3 9.704 5.515 5.561 6.297 6.259 6.922 6.259s1.406-.698 6.92-6.26c7.123-7.182 7.234-7.34 7.257-10.356 0-1.419-.112-2.027-.514-2.837-.759-1.576-1.942-2.815-3.349-3.513C53.673.151 53.16.04 51.775.04c-2.433 0-3.55.495-5.648 2.567l-1.742 1.688-1.607-1.62C41.795 1.706 40.724.873 40.054.58c-1.362-.608-3.661-.765-4.934-.337Zm3.662 3.715c.446.247 1.719 1.35 2.835 2.476 2.746 2.792 2.79 2.792 5.805-.202 1.25-1.216 2.545-2.342 2.88-2.477 1.005-.383 2.232-.27 3.059.293 1.63 1.103 2.187 2.904 1.428 4.525-.178.383-2.59 2.972-5.358 5.764l-5.023 5.066-4.934-4.953c-2.702-2.725-5.113-5.336-5.359-5.787-1.563-3.017 1.675-6.259 4.666-4.705Zm-13.441 7.43c-.513.563-1.697 3.782-1.697 4.593 0 1.396 1.117 2.161 2.39 1.62.58-.247.803-.607 1.406-2.16.982-2.567 1.05-3.108.446-3.873-.602-.766-1.942-.856-2.545-.18Zm35.566 0c-.715.563-.648 1.486.245 3.917.76 2.072 1.139 2.5 2.3 2.455a1.672 1.672 0 0 0 1.585-1.284c.179-.675-1.072-4.323-1.72-5.02-.58-.609-1.696-.654-2.41-.068Zm-45.188.36a1.733 1.733 0 0 0-.558 1.26c0 .631.312 1.036 1.964 2.725 2.188 2.207 2.769 2.41 3.729 1.419.96-.946.759-1.667-1.027-3.716-.871-.99-1.764-1.913-1.987-2.026a1.752 1.752 0 0 0-2.121.338Zm55.033-.27c-.2.157-1.071 1.058-1.964 2.003-1.273 1.374-1.608 1.87-1.608 2.432 0 .923.871 1.801 1.764 1.801.76 0 1.228-.405 3.237-2.634 1.005-1.148 1.25-1.576 1.25-2.184 0-1.306-1.696-2.206-2.678-1.418Zm-55.346 7.948c-1.786.225-2.433.405-2.79.743-.581.585-.581 1.868-.023 2.499.469.518 1.585.585 4.354.225 1.361-.18 1.763-.315 2.188-.788.267-.338.49-.833.49-1.126 0-.63-.803-1.598-1.45-1.756-.246-.045-1.496.022-2.769.203Zm54.744-.113c-.804.293-1.273 1.216-1.05 2.071.313 1.059 1.295 1.464 4.13 1.644l2.345.158.491-.63c.625-.789.625-1.51-.022-2.252-.424-.496-.76-.63-2.278-.81-.982-.113-2.076-.226-2.455-.294-.358-.045-.893 0-1.161.113Z" fill="#000"/><path d="M22.93 20.663c-.469.27-9.131 14.77-10.07 16.864-.356.81-.914 2.432-1.227 3.602-.469 1.802-.558 2.635-.558 5.291 0 5.089.625 7.183 4.086 13.532 1.228 2.23 2.232 4.188 2.232 4.323 0 .586-7.01 24.97-7.39 25.758-.558 1.103-1.585 1.868-3.215 2.319-2.076.608-3.282 1.328-4.532 2.68-1.16 1.305-1.965 3.016-2.188 4.727-.246 1.712-.469 1.599 11.632 5.089C17.706 106.582 22.796 108 22.997 108c1.317 0 2.366-2.567 2.166-5.359-.157-2.026-.938-3.76-2.479-5.403-1.607-1.689-2.009-2.567-1.987-4.098.023-.856 1.094-4.954 3.573-13.6l3.55-12.36 4.107-2.297c2.255-1.283 4.912-2.95 5.895-3.737 2.188-1.757 4.442-4.571 5.715-7.093l.96-1.891.893 1.734c1.317 2.521 2.233 3.782 4.13 5.718 2.077 2.072 2.746 2.545 7.636 5.292 2.143 1.193 3.93 2.206 3.974 2.251.045.023 1.674 5.651 3.617 12.496 2.411 8.42 3.55 12.789 3.55 13.532 0 1.53-.425 2.409-2.01 4.12-1.719 1.869-2.255 3.085-2.389 5.404-.178 2.949.782 5.291 2.166 5.291.424 0 20.116-5.674 21.567-6.192 1.295-.495 1.585-1.148 1.228-2.657-.893-3.58-3.103-5.853-6.542-6.754-1.428-.383-2.388-.99-3.08-1.959-.268-.383-1.92-5.809-4.109-13.464l-3.616-12.789 1.987-3.602c3.17-5.674 3.929-7.723 4.42-11.843.402-3.535-.178-7.386-1.697-10.988-.736-1.779-9.354-16.391-9.98-16.954-.245-.203-.714-.383-1.049-.383-.312 0-5.09 1.329-10.605 2.927l-10.024 2.905-10.114-2.905c-5.581-1.62-10.359-2.927-10.627-2.927-.29 0-.692.113-.893.248Zm18.865 8.556.827.225v3.67c0 2.026-.067 4.3-.134 5.066l-.157 1.373h-3.594c-3.952 0-7.48-.247-11.074-.788-2.523-.383-9.6-2.071-9.89-2.341-.134-.135 4.51-8.264 6.653-11.64.312-.496.312-.474 8.417 1.846 4.465 1.305 8.484 2.454 8.952 2.589Zm26.256 1.306c1.853 3.152 3.349 5.764 3.304 5.809-.2.18-4.264 1.283-6.608 1.778-4.532.946-8.06 1.284-13.307 1.306l-4.911.023-.067-4.999-.045-5.02.491-.113c.29-.09 4.287-1.239 8.886-2.567 6.117-1.779 8.44-2.364 8.618-2.184.134.135 1.786 2.814 3.639 5.967Zm5.805 11.325c.915 3.58.804 7.07-.335 10.537-.514 1.576-4.8 9.75-5.247 10.042-.111.067-1.362.45-2.746.855l-2.567.744-3.863-2.162c-4.666-2.612-5.693-3.355-7.747-5.561-1.16-1.261-1.83-2.252-2.679-3.986-1.317-2.679-1.786-4.458-1.965-7.137l-.134-1.959 5.336-.135c7.256-.202 13.15-1.08 19.067-2.837 1.674-.495 2.165-.563 2.3-.337.089.18.357 1.035.58 1.936ZM19.29 40.634c5.827 1.621 10.538 2.274 17.727 2.454l5.447.135-.134 1.937c-.335 4.413-1.897 8.128-4.8 11.302-1.853 2.027-2.947 2.815-7.568 5.381l-3.885 2.184-2.746-.788-2.724-.788-2.3-4.21c-1.25-2.341-2.522-4.93-2.813-5.809-1.294-3.873-1.272-8.466.09-12.068.29-.72.067-.743 3.706.27Zm3.349 26.118c1.094.338 1.317.495 1.272.856-.044.225-1.563 5.696-3.393 12.135-1.809 6.44-3.371 12.114-3.438 12.609-.358 2.161.736 4.998 2.634 6.957.692.721 1.407 1.666 1.585 2.117.424.99.447 2.611.067 2.454-.156-.045-4.108-1.194-8.774-2.522-4.666-1.351-8.529-2.477-8.573-2.5-.045-.044.178-.495.513-.99.625-.946 1.63-1.576 3.26-2.026 2.433-.653 4.465-2.252 5.448-4.278.29-.563 2.053-6.462 3.951-13.127 2.59-9.186 3.505-12.09 3.773-12.09.179 0 .938.18 1.675.405Zm49.095 11.37c3.371 11.956 3.885 13.51 4.934 14.883.826 1.103 2.679 2.296 4.242 2.724 1.808.518 3.103 1.306 3.684 2.252.268.45.469.833.424.878-.045.022-3.907 1.148-8.573 2.499a1062.39 1062.39 0 0 0-8.752 2.522c-.402.157-.38-1.531.022-2.5.179-.427.96-1.486 1.764-2.364 1.808-1.959 2.389-3.377 2.389-5.719 0-1.418-.424-3.13-3.371-13.554-1.876-6.552-3.394-12.068-3.416-12.248-.023-.293 2.098-1.08 2.991-1.126.246-.022 1.139 2.837 3.662 11.753Z" fill="#000"/><path d="M67.225 43.899c-.58.608-.625 1.373-.156 2.477.178.45.335 1.283.335 1.846 0 .563-.157 1.396-.335 1.846-.626 1.486-.358 2.522.759 2.995.982.405 1.786-.068 2.478-1.464.491-.99.558-1.396.536-3.377-.022-2.364-.335-3.513-1.206-4.39-.625-.631-1.808-.586-2.411.067ZM65.193 54.03c-.312.158-.893.946-1.317 1.78-.714 1.373-.759 1.553-.491 2.206.491 1.216 2.01 1.553 2.835.608.625-.698 1.63-2.5 1.63-2.927 0-.653-.491-1.464-1.05-1.711-.669-.316-.937-.316-1.607.045ZM34.25 47.321c-.336.315-.559.81-.559 1.17 0 1.397-.469 2.343-1.808 3.67-1.407 1.397-1.518 1.69-.983 2.703.693 1.35 2.077 1.17 3.796-.473 1.406-1.328 2.344-3.265 2.5-5.156.112-1.193.067-1.373-.446-1.891-.76-.766-1.764-.766-2.5-.023Zm-7.636 8.129c-1.496.832-1.853 1.282-1.853 2.228 0 .788.937 1.689 1.719 1.689.915 0 3.371-1.644 3.55-2.364.268-1.081-.692-2.364-1.764-2.364-.156 0-.893.36-1.652.81Z" fill="#000"/></svg>
